X:12
T:Oh Callar Spirlings (variation 11)
C:Domenico Corri
S:Jack Campin <abc:purr.demon.co.uk> abcusers 2004-12-6
V:1
V:2 bass
M:3/4
L:1/16
Q:1/4=84
K:D Minor
[V:1] a2|"^F."(d/^c/d/e/f/e/f/g/) .a.a.a.a  "^P."(a^g=ge) |f4      zfad'     f'2"^F."=B2 |
[V:2] z2|     [D,4A,4]            [F,4A,4]      [^C,4A,4] |zD,F,A, D4        z2       G,2|
%
[V:1]         (c/=B/c/d/e/d/e/f/) .g.g.g.g  "^P."(g^f=fd) |e4      zegc'     e'2"^F."^c2 |
[V:2]         [C,4G,4]            [E,4G,4]      [=B,,4G,4]|zC,E,G, C4        z2       A,2|
%
[V:1]          d/^c/d/e/f/e/f/g/   aaaa           a^g=ge  |f4      zfad'     f'4         |
[V:2]          F,4                 D,4           ^C,4     |zD,F,A, D4        zDA,F,      |
%
[V:1]     "^P."zbge                zafd           zge^c   |zdAF    D4        z2         ||
[V:2]          G,4                 A,4            A,,4    |D,4     zD,A,,F,, D,,2       ||
